assets/images/system/icon/phone-icon.svg

<svg width="24" height="24" viewBox="0 0 24 24" fill="none" xmlns="http://www.w3.org/2000/svg">
<path d="M6.17609 1.322L9.02009 0L13.0611 7.89L10.3371 9.231C9.79909 10.49 12.4961 15.52 13.6341 15.603C13.7241 15.545 16.3051 14.275 16.3051 14.275L20.4151 22.207C20.4151 22.207 17.6511 23.561 17.5611 23.603C9.69909 27.194 -1.54191 5.345 6.17609 1.322ZM8.10509 2.596L7.08209 3.1C1.78809 5.862 11.2591 24.285 16.7301 21.786L17.7011 21.312L15.4301 16.929L14.4041 17.429C11.2411 18.976 6.14209 9.21 9.34909 7.491L10.3561 6.994L8.10509 2.596Z" fill="#017113"/>
</svg>

<svg xmlns="http://www.w3.org/2000/svg" width="24" height="24" fill="none" xmlns:v="https://vecta.io/nano"><path d="M6.176 1.322L9.02 0l4.041 7.89-2.724 1.341c-.538 1.259 2.159 6.289 3.297 6.372.09-.058 2.671-1.328 2.671-1.328l4.11 7.932-2.854 1.396C9.699 27.194-1.542 5.345 6.176 1.322zm1.929 1.274L7.082 3.1c-5.294 2.762 4.177 21.185 9.648 18.686l.971-.474-2.271-4.383-1.026.5c-3.163 1.547-8.262-8.219-5.055-9.938l1.007-.497-2.251-4.398z" fill="#017113"/></svg>
